;FLAVOR:Marlin
;TIME:6503
;Filament used: 7.15975m
;Layer height: 0.3
;MINX:51
;MINY:75
;MINZ:0.3
;MAXX:169
;MAXY:145
;MAXZ:5.3
;Generated with Cura_SteamEngine 4.12.1
M82 ;absolute extrusion mode
;Sliced at: Sun 18-06-2023 09:10:35
;Basic settings: Layer height: 0.3 Walls: 0.8 Fill: 20
G21 ;metric values
G90 ;absolute positioning
M82 ;set extruder to absolute mode
M107 ;start with the fan off
M117 Start heating ...
M104 S200
M117 Homing X/Y ...
G28 X0 Y0 ;move X/Y to min endstops
M117 Homing Z ...
G28 Z0 ;move Z to min endstops
G1 Z15.0 F100 ;move the platform down 15mm
M117 Heating ...
M109 S200
M117 Start cleaning ...
G92 E0 ;zero the extruded length
G1 F200 E10 ;extrude 10mm of feed stock
G92 E0 ;zero the extruded length again
M117 Intro line ...
G1 Z2.0 F3000 ; Move Z Axis up little to prevent scratching of Heat Bed
G1 X0.1 Y20 Z0.3 F5000.0 ; Move to start position
G1 X0.1 Y200.0 Z0.3 F1500.0 E15 ; Draw the first line
G1 X0.4 Y200.0 Z0.3 F5000.0 ; Move to side a little
G1 X0.4 Y20 Z0.3 F1500.0 E30 ; Draw the second line
G92 E0 ; Reset Extruder
G1 E-1 F500 ; Retract filiment by 1 mm
G1 Z2.0 F3000 ; Move Z Axis up little to prevent scratching of Heat Bed
G1 X5 Y20 Z0.3 F100 ; Move over to prevent blob squish
G1 F100
G92 E0 ; Reset Extruder
M117 Printing...

G92 E0
G92 E0
G1 F1800 E-7
;LAYER_COUNT:17
;LAYER:0
M107
G1 F300 Z0.5
G0 F3000 X52.86 Y75.635 Z0.5
;TYPE:SKIRT
G1 F300 Z0.3
G1 F1800 E0
G1 X53.357 Y75.366 E0.02819
G1 X53.887 Y75.169 E0.0564
G1 X54.44 Y75.05 E0.08462
G1 X55.218 Y75.002 E0.12351
G1 X55.33 Y75 E0.1291
G1 X164.35 Y75 E5.56813
G1 X165.048 Y75.01 E5.60296
G1 X165.612 Y75.058 E5.6312
G1 X166.162 Y75.185 E5.65936
G1 X166.69 Y75.389 E5.6876
G1 X167.184 Y75.664 E5.71581
G1 X167.633 Y76.007 E5.744
G1 X168.03 Y76.409 E5.77218
G1 X168.367 Y76.864 E5.80043
G1 X168.635 Y77.361 E5.8286
G1 X168.831 Y77.891 E5.85679
G1 X168.951 Y78.444 E5.88503
G1 X168.998 Y79.218 E5.92371
G1 X169 Y79.33 E5.9293
G1 X169 Y140.314 E8.9718
G1 X168.991 Y141.041 E9.00808
G1 X168.944 Y141.604 E9.03626
G1 X168.818 Y142.155 E9.06446
G1 X168.616 Y142.683 E9.09267
G1 X168.341 Y143.177 E9.12087
G1 X167.999 Y143.627 E9.14907
G1 X167.597 Y144.025 E9.17729
G1 X167.144 Y144.362 E9.20546
G1 X166.647 Y144.632 E9.23368
G1 X166.117 Y144.829 E9.26189
G1 X165.565 Y144.95 E9.29008
G1 X164.782 Y144.998 E9.32922
G1 X164.67 Y145 E9.33481
G1 X55.655 Y145 E14.77359
G1 X54.957 Y144.991 E14.80842
G1 X54.394 Y144.943 E14.83661
G1 X53.843 Y144.817 E14.86481
G1 X53.315 Y144.615 E14.89301
G1 X52.821 Y144.34 E14.92122
G1 X52.371 Y143.998 E14.94942
G1 X51.973 Y143.596 E14.97764
G1 X51.637 Y143.142 E15.00582
G1 X51.367 Y142.645 E15.03403
G1 X51.17 Y142.115 E15.06224
G1 X51.05 Y141.563 E15.09043
G1 X51.001 Y140.766 E15.13026
G1 X51 Y79.62 E18.18085
G1 X51.009 Y78.955 E18.21403
G1 X51.057 Y78.392 E18.24222
G1 X51.183 Y77.841 E18.27042
G1 X51.386 Y77.313 E18.29864
G1 X51.662 Y76.819 E18.32687
G1 X52.004 Y76.369 E18.35507
G1 X52.406 Y75.972 E18.38326
G1 X52.86 Y75.635 E18.41147
G0 F3000 X53.241 Y75.873
G1 F1800 X53.726 Y75.645 E18.4382
G1 X54.24 Y75.492 E18.46496
G1 X54.908 Y75.41 E18.49854
G1 X55.33 Y75.4 E18.5196
G1 X164.345 Y75.4 E23.95838
G1 X165.043 Y75.41 E23.9932
G1 X165.577 Y75.458 E24.01995
G1 X166.098 Y75.584 E24.04669
G1 X166.595 Y75.787 E24.07348
G1 X167.056 Y76.061 E24.10023
G1 X167.471 Y76.4 E24.12697
G1 X167.831 Y76.798 E24.15374
G1 X168.128 Y77.244 E24.18047
G1 X168.356 Y77.73 E24.20726
G1 X168.508 Y78.244 E24.234
G1 X168.59 Y78.909 E24.26743
G1 X168.6 Y79.33 E24.28844
G1 X168.6 Y140.309 E27.33069
G1 X168.591 Y141.036 E27.36696
G1 X168.544 Y141.57 E27.39371
G1 X168.419 Y142.091 E27.42044
G1 X168.217 Y142.588 E27.4472
G1 X167.944 Y143.05 E27.47398
G1 X167.606 Y143.466 E27.50072
G1 X167.209 Y143.827 E27.52749
G1 X166.763 Y144.125 E27.55425
G1 X166.278 Y144.353 E27.58099
G1 X165.764 Y144.507 E27.60776
G1 X165.092 Y144.59 E27.64154
G1 X164.67 Y144.6 E27.6626
G1 X55.661 Y144.6 E33.10108
G1 X54.963 Y144.591 E33.1359
G1 X54.428 Y144.544 E33.1627
G1 X53.907 Y144.418 E33.18944
G1 X53.41 Y144.216 E33.21621
G1 X52.949 Y143.943 E33.24294
G1 X52.533 Y143.604 E33.26971
G1 X52.172 Y143.208 E33.29644
G1 X51.874 Y142.762 E33.3232
G1 X51.646 Y142.276 E33.34999
G1 X51.493 Y141.762 E33.37674
G1 X51.41 Y141.088 E33.41062
G1 X51.4 Y140.658 E33.43208
G1 X51.4 Y79.625 E36.47703
G1 X51.409 Y78.96 E36.51021
G1 X51.457 Y78.426 E36.53696
G1 X51.583 Y77.905 E36.5637
G1 X51.785 Y77.408 E36.59046
G1 X52.058 Y76.947 E36.61719
G1 X52.397 Y76.531 E36.64397
G1 X52.794 Y76.171 E36.6707
G1 X53.241 Y75.873 E36.69751
G0 F3000 X53.18 Y76.383
G1 F1800 X53.617 Y76.128 E36.72275
G1 X54.088 Y75.944 E36.74798
G1 X54.582 Y75.838 E36.77318
G1 X55.24 Y75.801 E36.80606
G1 X164.339 Y75.8 E42.24903
G1 X165.037 Y75.81 E42.28386
G1 X165.54 Y75.857 E42.30906
G1 X166.03 Y75.983 E42.33431
G1 X166.494 Y76.185 E42.35955
G1 X166.92 Y76.457 E42.38477
G1 X167.298 Y76.792 E42.40997
G1 X167.618 Y77.183 E42.43518
G1 X167.873 Y77.62 E42.46042
G1 X168.056 Y78.091 E42.48563
G1 X168.163 Y78.585 E42.51084
G1 X168.199 Y79.24 E42.54357
G1 X168.2 Y140.304 E45.59007
G1 X168.191 Y141.031 E45.62634
G1 X168.145 Y141.534 E45.65154
G1 X168.02 Y142.024 E45.67677
G1 X167.819 Y142.488 E45.702
G1 X167.548 Y142.915 E45.72723
G1 X167.213 Y143.294 E45.75246
G1 X166.823 Y143.615 E45.77766
G1 X166.387 Y143.871 E45.80289
G1 X165.916 Y144.054 E45.8281
G1 X165.422 Y144.162 E45.85333
G1 X164.76 Y144.199 E45.88641
G1 X55.666 Y144.2 E51.32913
G1 X54.968 Y144.191 E51.36395
G1 X54.464 Y144.144 E51.38921
G1 X53.974 Y144.019 E51.41444
G1 X53.51 Y143.818 E51.43966
G1 X53.084 Y143.547 E51.46485
G1 X52.705 Y143.212 E51.49009
G1 X52.384 Y142.821 E51.51533
G1 X52.129 Y142.385 E51.54053
G1 X51.945 Y141.914 E51.56576
G1 X51.838 Y141.42 E51.59097
G1 X51.801 Y140.744 E51.62475
G1 X51.8 Y79.631 E54.67369
G1 X51.809 Y78.966 E54.70687
G1 X51.856 Y78.462 E54.73212
G1 X51.982 Y77.973 E54.75732
G1 X52.183 Y77.509 E54.78254
G1 X52.454 Y77.082 E54.80777
G1 X52.789 Y76.704 E54.83297
G1 X53.18 Y76.383 E54.85821
G1 F1800 E47.85821
G1 F300 Z0.5
;MESH:Funky Densor-Bigery.stl
G0 F3000 X55.6 Y79.6 Z0.5
;TYPE:WALL-INNER
G1 F300 Z0.3
G1 F1800 E54.85821
G1 X59.569 Y79.6 E55.05623
G1 X60.266 Y79.6 E55.091
G1 X60.671 Y79.6 E55.11121
G1 X60.266 Y79.664 E55.11303
G1 X59.645 Y79.98 E55.13359
G1 X58.703 Y80.461 E55.18636
G1 X57.461 Y81.703 E55.27399
G1 X56.664 Y83.266 E55.36152
G1 X56.39 Y85 E55.4491
G1 X56.664 Y86.734 E55.53668
G1 X57.461 Y88.297 E55.62421
G1 X58.703 Y89.539 E55.71184
G1 X60.266 Y90.336 E55.79937
G1 X62 Y90.609 E55.88695
G1 X63.734 Y90.336 E55.97452
G1 X65.297 Y89.539 E56.06206
G1 X66.539 Y88.297 E56.14969
G1 X67.336 Y86.734 E56.23722
G1 X67.609 Y85 E56.32479
G1 X67.336 Y83.266 E56.41237
G1 X66.539 Y81.703 E56.4999
G1 X65.297 Y80.461 E56.58753
G1 X64.355 Y79.98 E56.6403
G1 X63.734 Y79.664 E56.67506
G1 X63.329 Y79.6 E56.69552
G1 X63.734 Y79.6 E56.69709
G1 X64.431 Y79.6 E56.71767
G1 X164.4 Y79.6 E61.70515
G1 X164.4 Y140.4 E64.73847
G1 X55.6 Y140.4 E70.16653
G1 X55.6 Y79.6 E73.19985
G1 F1800 E66.19985
G0 F3000 X62 Y79.654
G0 X63.652 Y79.915
G0 X65.142 Y80.675
G0 X66.325 Y81.858
G0 X67.085 Y83.348
G0 X67.345 Y85
G0 X67.085 Y86.652
G0 X66.389 Y88.15
G1 F1800 E73.19985
G0 F3000 X66.211 Y88.059
;TYPE:WALL-OUTER
G1 F1800 X66.951 Y86.609 E73.28107
G1 X67.204 Y85 E73.36233
G1 X66.951 Y83.391 E73.44359
G1 X66.211 Y81.941 E73.5248
G1 X65.059 Y80.789 E73.60608
G1 X63.609 Y80.049 E73.6873
G1 X62 Y79.795 E73.76857
G1 X60.391 Y80.049 E73.84983
G1 X58.941 Y80.789 E73.93105
G1 X57.789 Y81.941 E74.01233
G1 X57.049 Y83.391 E74.09355
G1 X56.795 Y85 E74.17482
G1 X57.049 Y86.609 E74.25608
G1 X57.789 Y88.059 E74.3373
G1 X58.941 Y89.211 E74.41858
G1 X60.391 Y89.951 E74.4998
G1 X62 Y90.204 E74.58106
G1 X63.609 Y89.951 E74.66232
G1 X65.059 Y89.211 E74.74353
G1 X66.211 Y88.059 E74.82481
G0 F3000 X66.301 Y87.881
G0 X66.693 Y88.082
G1 F1800 E67.82481
G0 F3000 X67.782 Y85
G0 X66.679 Y81.601
G0 X64.445 Y79.801
G0 X164.218 Y79.782
G0 X164.63 Y140.63
G1 F1800 E74.82481
G0 F3000 X164.8 Y140.8
G1 F1800 X55.2 Y140.8 E80.29278
G1 X55.2 Y79.2 E83.36602
G1 X164.8 Y79.2 E88.83398
G1 X164.8 Y140.8 E91.90722
G0 F3000 X164.6 Y140.8
G0 X164.36 Y140.36
G0 X164.01 Y140.01
;TYPE:SKIN
G1 F1800 X55.99 Y140.01 E97.29636
G1 X55.99 Y79.99 E100.29077
G1 X58.767 Y79.99 E100.42931
G1 X58.471 Y80.141 E100.44589
G1 X57.141 Y81.471 E100.53973
G1 X56.288 Y83.144 E100.63342
G1 X55.996 Y85 E100.72715
G1 X56.288 Y86.856 E100.82089
G1 X57.141 Y88.529 E100.91458
G1 X58.471 Y89.859 E101.00842
G1 X60.144 Y90.712 E101.10211
G1 X62 Y91.003 E101.19583
G1 X63.856 Y90.712 E101.28956
G1 X65.529 Y89.859 E101.38325
G1 X66.859 Y88.529 E101.47709
G1 X67.712 Y86.856 E101.57078
G1 X68.003 Y85 E101.66451
G1 X67.712 Y83.144 E101.75823
G1 X66.859 Y81.471 E101.85192
G1 X65.529 Y80.141 E101.94576
G1 X65.233 Y79.99 E101.96234
G1 X164.01 Y79.99 E106.89034
G1 X164.01 Y140.01 E109.88475
G1 F1800 E102.88475
G0 F3000 X164.29 Y140.01
G0 X164.29 Y80.673
G1 F1800 E109.88475
G0 F3000 X163.829 Y80.673
G1 F1800 X163.326 Y80.17 E109.92024
G0 F3000 X162.76 Y80.17
G1 F1800 X163.829 Y81.239 E109.99567
G0 F3000 X163.829 Y81.805
G1 F1800 X162.194 Y80.17 E110.11102
G0 F3000 X161.629 Y80.17
G1 F1800 X163.829 Y82.37 E110.26625
G0 F3000 X163.829 Y82.936
G1 F1800 X161.063 Y80.17 E110.4614
G0 F3000 X160.497 Y80.17
G1 F1800 X163.829 Y83.502 E110.69649
G0 F3000 X163.829 Y84.067
G1 F1800 X159.931 Y80.17 E110.97148
G0 F3000 X159.366 Y80.17
G1 F1800 X163.829 Y84.633 E111.28637
G0 F3000 X163.829 Y85.199
G1 F1800 X158.8 Y80.17 E111.64119
G0 F3000 X158.234 Y80.17
G1 F1800 X163.829 Y85.764 E112.03592
G0 F3000 X163.829 Y86.33
G1 F1800 X157.669 Y80.17 E112.47054
G0 F3000 X157.103 Y80.17
G1 F1800 X163.829 Y86.896 E112.94509
G0 F3000 X163.829 Y87.462
G1 F1800 X156.537 Y80.17 E113.45958
G0 F3000 X155.972 Y80.17
G1 F1800 X163.829 Y88.027 E114.01394
G0 F3000 X163.829 Y88.593
G1 F1800 X155.406 Y80.17 E114.60823
G0 F3000 X154.84 Y80.17
G1 F1800 X163.829 Y89.159 E115.24245
G0 F3000 X163.829 Y89.724
G1 F1800 X154.275 Y80.17 E115.91653
G0 F3000 X153.709 Y80.17
G1 F1800 X163.829 Y90.29 E116.63056
G0 F3000 X163.829 Y90.856
G1 F1800 X153.143 Y80.17 E117.38451
G0 F3000 X152.578 Y80.17
G1 F1800 X163.829 Y91.421 E118.17833
G0 F3000 X163.829 Y91.987
G1 F1800 X152.012 Y80.17 E119.01208
G0 F3000 X151.446 Y80.17
G1 F1800 X163.829 Y92.553 E119.88577
G0 F3000 X163.829 Y93.118
G1 F1800 X150.881 Y80.17 E120.79932
G0 F3000 X150.315 Y80.17
G1 F1800 X163.829 Y93.684 E121.75281
G0 F3000 X163.829 Y94.25
G1 F1800 X149.749 Y80.17 E122.74623
G0 F3000 X149.183 Y80.17
G1 F1800 X163.829 Y94.815 E123.77955
G0 F3000 X163.829 Y95.381
G1 F1800 X148.618 Y80.17 E124.85276
G0 F3000 X148.052 Y80.17
G1 F1800 X163.829 Y95.947 E125.96592
G0 F3000 X163.829 Y96.513
G1 F1800 X147.486 Y80.17 E127.119
G0 F3000 X146.921 Y80.17
G1 F1800 X163.829 Y97.078 E128.31195
G0 F3000 X163.829 Y97.644
G1 F1800 X146.355 Y80.17 E129.54484
G0 F3000 X145.789 Y80.17
G1 F1800 X163.829 Y98.21 E130.81766
G0 F3000 X163.829 Y98.775
G1 F1800 X145.224 Y80.17 E132.13034
G0 F3000 X144.658 Y80.17
G1 F1800 X163.829 Y99.341 E133.48296
G0 F3000 X163.829 Y99.907
G1 F1800 X144.092 Y80.17 E134.87551
G0 F3000 X143.527 Y80.17
G1 F1800 X163.829 Y100.472 E136.30793
G0 F3000 X163.829 Y101.038
G1 F1800 X142.961 Y80.17 E137.78028
G0 F3000 X142.395 Y80.17
G1 F1800 X163.829 Y101.604 E139.29256
G0 F3000 X163.829 Y102.169
G1 F1800 X141.83 Y80.17 E140.84471
G0 F3000 X141.264 Y80.17
G1 F1800 X163.829 Y102.735 E142.43679
G0 F3000 X163.829 Y103.301
G1 F1800 X140.698 Y80.17 E144.06881
G0 F3000 X140.133 Y80.17
G1 F1800 X163.829 Y103.866 E145.74069
G0 F3000 X163.829 Y104.432
G1 F1800 X139.567 Y80.17 E147.45251
G0 F3000 X139.001 Y80.17
G1 F1800 X163.829 Y104.998 E149.20426
G0 F3000 X163.829 Y105.563
G1 F1800 X138.435 Y80.17 E150.9959
G0 F3000 X137.87 Y80.17
G1 F1800 X163.829 Y106.129 E152.82745
G0 F3000 X163.829 Y106.695
G1 F1800 X137.304 Y80.17 E154.69893
G0 F3000 X136.738 Y80.17
G1 F1800 X163.829 Y107.261 E156.61035
G0 F3000 X163.829 Y107.826
G1 F1800 X136.173 Y80.17 E158.56163
G0 F3000 X135.607 Y80.17
G1 F1800 X163.829 Y108.392 E160.55284
G0 F3000 X163.829 Y108.958
G1 F1800 X135.041 Y80.17 E162.58399
G0 F3000 X134.476 Y80.17
G1 F1800 X163.829 Y109.523 E164.65501
G0 F3000 X163.829 Y110.089
G1 F1800 X133.91 Y80.17 E166.76595
G0 F3000 X133.344 Y80.17
G1 F1800 X163.829 Y110.655 E168.91683
G0 F3000 X163.829 Y111.22
G1 F1800 X132.779 Y80.17 E171.10758
G0 F3000 X132.213 Y80.17
G1 F1800 X163.829 Y111.786 E173.33826
G0 F3000 X163.829 Y112.352
G1 F1800 X131.647 Y80.17 E175.60887
G0 F3000 X131.082 Y80.17
G1 F1800 X163.829 Y112.917 E177.91935
G0 F3000 X163.829 Y113.483
G1 F1800 X130.516 Y80.17 E180.26976
G0 F3000 X129.95 Y80.17
G1 F1800 X163.829 Y114.049 E182.66011
G0 F3000 X163.829 Y114.614
G1 F1800 X129.384 Y80.17 E185.09036
G0 F3000 X128.819 Y80.17
G1 F1800 X163.829 Y115.18 E187.5605
G0 F3000 X163.829 Y115.746
G1 F1800 X128.253 Y80.17 E190.07058
G0 F3000 X127.687 Y80.17
G1 F1800 X163.829 Y116.311 E192.62056
G0 F3000 X163.829 Y116.877
G1 F1800 X127.122 Y80.17 E195.21043
G0 F3000 X126.556 Y80.17
G1 F1800 X163.829 Y117.443 E197.84025
G0 F3000 X163.829 Y118.009
G1 F1800 X125.99 Y80.17 E200.50999
G0 F3000 X125.425 Y80.17
G1 F1800 X163.829 Y118.574 E203.2196
G0 F3000 X163.829 Y119.14
G1 F1800 X124.859 Y80.17 E205.96914
G0 F3000 X124.293 Y80.17
G1 F1800 X163.829 Y119.706 E208.75862
G0 F3000 X163.829 Y120.271
G1 F1800 X123.728 Y80.17 E211.58797
G0 F3000 X123.162 Y80.17
G1 F1800 X163.829 Y120.837 E214.45724
G0 F3000 X163.829 Y121.403
G1 F1800 X122.596 Y80.17 E217.36645
G0 F3000 X122.031 Y80.17
G1 F1800 X163.829 Y121.968 E220.31553
G0 F3000 X163.829 Y122.534
G1 F1800 X121.465 Y80.17 E223.30454
G0 F3000 X120.899 Y80.17
G1 F1800 X163.829 Y123.1 E226.33348
G0 F3000 X163.829 Y123.665
G1 F1800 X120.334 Y80.17 E229.40229
G0 F3000 X119.768 Y80.17
G1 F1800 X163.829 Y124.231 E232.51103
G0 F3000 X163.829 Y124.797
G1 F1800 X119.202 Y80.17 E235.6597
G0 F3000 X118.636 Y80.17
G1 F1800 X163.829 Y125.362 E238.84828
G0 F3000 X163.829 Y125.928
G1 F1800 X118.071 Y80.17 E242.07675
G0 F3000 X117.505 Y80.17
G1 F1800 X163.829 Y126.494 E245.34516
G0 F3000 X163.829 Y127.06
G1 F1800 X116.939 Y80.17 E248.6535
G0 F3000 X116.374 Y80.17
G1 F1800 X163.829 Y127.625 E252.00171
G0 F3000 X163.829 Y128.191
G1 F1800 X115.808 Y80.17 E255.38985
G0 F3000 X115.242 Y80.17
G1 F1800 X163.829 Y128.757 E258.81793
G0 F3000 X163.829 Y129.322
G1 F1800 X114.677 Y80.17 E262.28587
G0 F3000 X114.111 Y80.17
G1 F1800 X163.829 Y129.888 E265.79374
G0 F3000 X163.829 Y130.454
G1 F1800 X113.545 Y80.17 E269.34155
G0 F3000 X112.98 Y80.17
G1 F1800 X163.829 Y131.019 E272.92922
G0 F3000 X163.829 Y131.585
G1 F1800 X112.414 Y80.17 E276.55682
G0 F3000 X111.848 Y80.17
G1 F1800 X163.829 Y132.151 E280.22437
G0 F3000 X163.829 Y132.716
G1 F1800 X111.283 Y80.17 E283.93177
G0 F3000 X110.717 Y80.17
G1 F1800 X163.829 Y133.282 E287.67911
G0 F3000 X163.829 Y133.848
G1 F1800 X110.151 Y80.17 E291.46638
G0 F3000 X109.585 Y80.17
G1 F1800 X163.829 Y134.413 E295.29355
G0 F3000 X163.829 Y134.979
G1 F1800 X109.02 Y80.17 E299.16062
G0 F3000 X108.454 Y80.17
G1 F1800 X163.829 Y135.545 E303.06763
G0 F3000 X163.829 Y136.11
G1 F1800 X107.888 Y80.17 E307.01453
G0 F3000 X107.323 Y80.17
G1 F1800 X163.829 Y136.676 E311.00134
G0 F3000 X163.829 Y137.242
G1 F1800 X106.757 Y80.17 E315.02807
G0 F3000 X106.191 Y80.17
G1 F1800 X163.829 Y137.808 E319.09475
G0 F3000 X163.829 Y138.373
G1 F1800 X105.626 Y80.17 E323.20128
G0 F3000 X105.06 Y80.17
G1 F1800 X163.829 Y138.939 E327.34775
G0 F3000 X163.829 Y139.505
G1 F1800 X104.494 Y80.17 E331.53416
